packages/icons/svg/Outline/crop.svg

<svg width="24" height="24" viewBox="0 0 24 24" fill="none" xmlns="http://www.w3.org/2000/svg">
<g id="Icon/Outline/crop">
<path id="Mask" fill-rule="evenodd" clip-rule="evenodd" d="M8.55576 16C8.24976 16 7.99976 15.751 7.99976 15.444V8H15.4448C15.7508 8 15.9998 8.249 15.9998 8.556V16H8.55576ZM20.9998 16H17.9998V8.556C17.9998 7.146 16.8538 6 15.4448 6H7.99976V3C7.99976 2.447 7.55276 2 6.99976 2C6.44776 2 5.99976 2.447 5.99976 3V6H2.99976C2.44776 6 1.99976 6.447 1.99976 7C1.99976 7.553 2.44776 8 2.99976 8H5.99976V15.444C5.99976 16.854 7.14676 18 8.55576 18H15.9998V21C15.9998 21.553 16.4478 22 16.9998 22C17.5528 22 17.9998 21.553 17.9998 21V18H20.9998C21.5528 18 21.9998 17.553 21.9998 17C21.9998 16.447 21.5528 16 20.9998 16Z" fill="#000000"/>
</g>
</svg>

<svg fill="none" height="24" viewBox="0 0 24 24" width="24" xmlns="http://www.w3.org/2000/svg"><path clip-rule="evenodd" d="m8.55569 16c-.306 0-.556-.249-.556-.556v-7.444h7.44501c.306 0 .555.249.555.556v7.444zm12.44401 0h-3v-7.444c0-1.41-1.146-2.556-2.555-2.556h-7.44501v-3c0-.553-.447-1-1-1-.552 0-1 .447-1 1v3h-3c-.552 0-1 .447-1 1s.448 1 1 1h3v7.444c0 1.41 1.14701 2.556 2.55601 2.556h7.444v3c0 .553.448 1 1 1 .553 0 1-.447 1-1v-3h3c.553 0 1-.447 1-1s-.447-1-1-1z" fill="#6b7280" fill-rule="evenodd"/></svg>
